X:1
T:The Devil's Quandary
C:Bob McMurty
M:6/8
L:1/8
K:G
d | B2 G D2 B | c2 A F2 E | D2 d cBA | B3-B2 d | B2 G D2 B | c2 A F2 E | Ded cBA | G3-G2 ||
A | BAB GAB | c3 c2 B | Ace gfe | d3-d2 c | BAB GAB | ceg gfe | dBg BcA | G3-G2 ||
|: B | c2 a B2 g | fef gdB | c2 a B2 g | fef !turn!g3 | c2 a B2 g | fef gdB | EcA dcA | G3-G2 :|]
